Newaita-dark/.DP/16/skype-indicator.svg

<svg xmlns="http://www.w3.org/2000/svg" xmlns:xlink="http://www.w3.org/1999/xlink" width="16px" height="16px" viewBox="0 0 16 16" version="1.1">
<g id="surface1">
<path style=" stroke:none;fill-rule:nonzero;fill:rgb(93.333334%,93.333334%,93.333334%);fill-opacity:1;" d="M 5.363281 2.101562 C 3.796875 2.101562 2.535156 3.363281 2.535156 4.929688 C 2.535156 5.402344 2.652344 5.847656 2.855469 6.238281 C 2.648438 6.808594 2.535156 7.425781 2.535156 8.070312 C 2.535156 11.03125 4.917969 13.414062 7.878906 13.414062 C 8.109375 13.414062 8.335938 13.398438 8.558594 13.371094 C 9.050781 13.789062 9.691406 14.042969 10.390625 14.042969 C 11.957031 14.042969 13.21875 12.78125 13.21875 11.214844 C 13.21875 10.738281 13.105469 10.292969 12.898438 9.902344 C 13.105469 9.332031 13.21875 8.714844 13.21875 8.070312 C 13.21875 5.109375 10.835938 2.726562 7.878906 2.726562 C 7.644531 2.726562 7.417969 2.742188 7.195312 2.769531 C 6.703125 2.351562 6.0625 2.101562 5.363281 2.101562 Z M 9.261719 5.144531 L 9.921875 5.144531 C 9.929688 5.144531 9.933594 5.144531 9.941406 5.144531 C 9.945312 5.144531 9.949219 5.144531 9.957031 5.144531 C 9.957031 5.144531 9.957031 5.144531 9.960938 5.144531 C 9.964844 5.144531 9.96875 5.148438 9.972656 5.148438 C 9.972656 5.148438 9.972656 5.148438 9.976562 5.148438 C 9.980469 5.148438 9.984375 5.148438 9.988281 5.148438 C 9.996094 5.152344 10 5.152344 10.003906 5.152344 C 10.003906 5.152344 10.007812 5.15625 10.007812 5.15625 C 10.011719 5.15625 10.015625 5.15625 10.019531 5.15625 C 10.019531 5.15625 10.023438 5.160156 10.023438 5.160156 C 10.027344 5.160156 10.03125 5.160156 10.035156 5.164062 C 10.046875 5.167969 10.058594 5.171875 10.066406 5.175781 C 10.070312 5.179688 10.074219 5.179688 10.082031 5.183594 C 10.085938 5.1875 10.089844 5.1875 10.09375 5.191406 C 10.101562 5.195312 10.105469 5.199219 10.109375 5.203125 C 10.113281 5.203125 10.113281 5.203125 10.113281 5.203125 C 10.117188 5.207031 10.121094 5.210938 10.125 5.210938 C 10.125 5.214844 10.128906 5.214844 10.128906 5.214844 C 10.132812 5.21875 10.136719 5.222656 10.140625 5.222656 C 10.140625 5.226562 10.140625 5.226562 10.144531 5.226562 C 10.148438 5.230469 10.152344 5.234375 10.15625 5.242188 C 10.160156 5.242188 10.164062 5.246094 10.167969 5.25 C 10.171875 5.253906 10.175781 5.257812 10.179688 5.265625 C 10.179688 5.269531 10.183594 5.273438 10.1875 5.277344 C 10.195312 5.285156 10.199219 5.292969 10.207031 5.300781 C 10.207031 5.308594 10.210938 5.3125 10.214844 5.316406 C 10.214844 5.316406 10.214844 5.320312 10.214844 5.320312 C 10.21875 5.328125 10.222656 5.335938 10.226562 5.339844 C 10.226562 5.34375 10.226562 5.34375 10.226562 5.34375 C 10.230469 5.351562 10.230469 5.355469 10.234375 5.359375 C 10.238281 5.371094 10.242188 5.382812 10.242188 5.390625 C 10.246094 5.398438 10.246094 5.402344 10.246094 5.40625 C 10.246094 5.414062 10.25 5.417969 10.25 5.425781 C 10.25 5.429688 10.25 5.433594 10.25 5.441406 C 10.253906 5.441406 10.253906 5.441406 10.253906 5.441406 C 10.253906 5.445312 10.253906 5.453125 10.253906 5.457031 C 10.253906 5.464844 10.253906 5.46875 10.253906 5.472656 L 10.253906 6.136719 C 10.253906 6.320312 10.105469 6.464844 9.921875 6.464844 L 9.59375 6.464844 C 9.410156 6.464844 9.261719 6.320312 9.261719 6.136719 L 6.945312 6.136719 C 6.761719 6.136719 6.613281 6.285156 6.613281 6.464844 L 6.613281 7.128906 C 6.613281 7.3125 6.761719 7.457031 6.945312 7.457031 L 9.921875 7.457031 C 10.105469 7.457031 10.253906 7.605469 10.253906 7.789062 L 10.253906 10.4375 C 10.253906 10.617188 10.105469 10.765625 9.921875 10.765625 L 5.953125 10.765625 C 5.941406 10.765625 5.929688 10.765625 5.917969 10.765625 C 5.914062 10.765625 5.910156 10.761719 5.902344 10.761719 C 5.898438 10.761719 5.890625 10.761719 5.882812 10.757812 C 5.882812 10.757812 5.882812 10.757812 5.878906 10.757812 C 5.875 10.757812 5.871094 10.757812 5.867188 10.753906 C 5.863281 10.753906 5.863281 10.753906 5.859375 10.753906 C 5.855469 10.75 5.851562 10.75 5.847656 10.75 C 5.84375 10.75 5.84375 10.746094 5.84375 10.746094 C 5.835938 10.746094 5.832031 10.742188 5.824219 10.742188 C 5.820312 10.738281 5.816406 10.738281 5.808594 10.734375 C 5.796875 10.726562 5.78125 10.71875 5.769531 10.710938 C 5.761719 10.707031 5.757812 10.703125 5.753906 10.699219 C 5.753906 10.699219 5.75 10.695312 5.75 10.695312 C 5.746094 10.695312 5.742188 10.691406 5.738281 10.6875 C 5.738281 10.6875 5.734375 10.683594 5.734375 10.683594 C 5.730469 10.679688 5.726562 10.679688 5.726562 10.675781 C 5.722656 10.675781 5.722656 10.671875 5.722656 10.671875 C 5.71875 10.667969 5.710938 10.664062 5.707031 10.660156 C 5.699219 10.648438 5.6875 10.632812 5.679688 10.621094 C 5.675781 10.617188 5.671875 10.613281 5.671875 10.609375 C 5.664062 10.597656 5.660156 10.589844 5.65625 10.578125 C 5.652344 10.574219 5.652344 10.570312 5.648438 10.566406 C 5.648438 10.566406 5.648438 10.5625 5.648438 10.5625 C 5.644531 10.558594 5.644531 10.554688 5.644531 10.554688 C 5.644531 10.550781 5.644531 10.550781 5.640625 10.546875 C 5.640625 10.542969 5.640625 10.539062 5.636719 10.535156 C 5.636719 10.527344 5.636719 10.523438 5.632812 10.519531 C 5.632812 10.519531 5.632812 10.515625 5.632812 10.515625 C 5.632812 10.511719 5.632812 10.507812 5.628906 10.503906 C 5.628906 10.503906 5.628906 10.503906 5.628906 10.5 C 5.628906 10.496094 5.628906 10.492188 5.625 10.488281 C 5.625 10.484375 5.625 10.484375 5.625 10.484375 C 5.625 10.480469 5.625 10.476562 5.625 10.472656 C 5.625 10.46875 5.625 10.46875 5.625 10.464844 C 5.625 10.464844 5.625 10.460938 5.625 10.457031 C 5.625 10.453125 5.625 10.453125 5.625 10.453125 C 5.625 10.445312 5.621094 10.441406 5.621094 10.4375 L 5.621094 9.773438 C 5.621094 9.589844 5.769531 9.445312 5.953125 9.445312 L 6.285156 9.445312 C 6.46875 9.445312 6.613281 9.589844 6.613281 9.773438 L 8.929688 9.773438 C 9.113281 9.773438 9.261719 9.625 9.261719 9.445312 L 9.261719 8.78125 C 9.261719 8.597656 9.113281 8.453125 8.929688 8.453125 L 5.953125 8.453125 C 5.769531 8.453125 5.621094 8.304688 5.621094 8.121094 L 5.621094 5.472656 C 5.621094 5.292969 5.769531 5.144531 5.953125 5.144531 Z M 9.261719 5.144531 "/>
</g>
</svg>

<svg xmlns="http://www.w3.org/2000/svg" width="16pt" height="16pt" viewBox="0 0 16 16"><path d="M5.363 2.102a2.83 2.83 0 0 0-2.508 4.137 5.36 5.36 0 0 0-.32 1.831 5.331 5.331 0 0 0 6.024 5.301 2.823 2.823 0 0 0 1.832.672 2.822 2.822 0 0 0 2.828-2.828c0-.477-.114-.922-.32-1.313a5.36 5.36 0 0 0 .32-1.832 5.33 5.33 0 0 0-6.024-5.3 2.82 2.82 0 0 0-1.832-.668zm3.899 3.043H9.96l.012.003h.015a.03.03 0 0 0 .016.004l.004.004h.012l.003.004c.004 0 .008 0 .012.004.012.004.024.008.031.012.004.004.008.004.016.008.004.003.008.003.012.007.008.004.011.008.015.012h.004c.004.004.008.008.012.008 0 .004.004.004.004.004.004.004.008.008.012.008 0 .004 0 .004.004.004a.054.054 0 0 1 .011.015c.004 0 .008.004.012.008a.054.054 0 0 1 .012.016c0 .004.004.007.008.011.007.008.011.016.019.024 0 .008.004.011.008.015v.004a.085.085 0 0 0 .012.02v.004c.003.008.003.011.007.015.004.012.008.024.008.032a.03.03 0 0 1 .004.015c0 .008.004.012.004.02v.015h.004V6.137a.328.328 0 0 1-.332.328h-.328a.328.328 0 0 1-.332-.328H6.945a.33.33 0 0 0-.332.328v.664c0 .184.149.328.332.328h2.977c.183 0 .332.148.332.332v2.649a.33.33 0 0 1-.332.328H5.918c-.004 0-.008-.004-.016-.004-.004 0-.011 0-.02-.004H5.88c-.004 0-.008 0-.012-.004H5.86c-.004-.004-.007-.004-.011-.004-.004 0-.004-.004-.004-.004-.008 0-.012-.004-.02-.004-.004-.004-.008-.004-.015-.008l-.04-.023a.054.054 0 0 1-.015-.012l-.004-.004c-.004 0-.008-.004-.012-.008l-.004-.003c-.004-.004-.007-.004-.007-.008-.004 0-.004-.004-.004-.004l-.016-.012c-.008-.012-.02-.027-.027-.039-.004-.004-.008-.008-.008-.012a.117.117 0 0 1-.016-.03c-.004-.005-.004-.009-.008-.013v-.004c-.003-.003-.003-.007-.003-.007 0-.004 0-.004-.004-.008 0-.004 0-.008-.004-.012 0-.008 0-.012-.004-.015v-.004c0-.004 0-.008-.004-.012V10.5c0-.004 0-.008-.004-.012v-.004-.011-.008-.008-.004c0-.008-.004-.012-.004-.015v-.665c0-.183.149-.328.332-.328h.332c.184 0 .328.145.328.328H8.93a.33.33 0 0 0 .332-.328v-.664a.328.328 0 0 0-.332-.328H5.953a.332.332 0 0 1-.332-.332V5.473a.33.33 0 0 1 .332-.328zm0 0" fill="#bdbdbd"/></svg>
